X:1
T:MARCHIONESS OF HUNTLY'S STRATHSPEY
T:MARCHIONESS OF HUNTLY'S STRATHSPEY
T:Marshall
C:Marshall
L:1/8
M:4/4
K:Bb
V:1 treble 
V:1
|: [B,D]>DF>D E<G TF2 | G>c c>d (e/d/).c/.B/ (A/G/).F/.E/ | [B,D]>EFD EG TF2 | %3
 G>c (B/A/)(G/F/) B2 B2 :| d<fB>f d>f (e/d/).c/.B/ | A>cF>c AcFe | d<fB>f d>f (e/d/).c/.B/ | %7
 (A/B/).c/.d/ (B/A/).G/.F/ | B2 B,>e | d<fd>f d/f/g/a/ !fermata!b z/ B/ | %10
 (Ac)(cd) (e/d/).c/.B/ (A/G/).F/.E/ | [B,D]>EFD EG TF2 | G>c (B/A/)(G/F/) B2 B2 |] %13

